dist/assets/img/footer-visa.svg

<svg width="118" height="27" viewBox="0 0 118 27" fill="none" xmlns="http://www.w3.org/2000/svg">
<g opacity="0.5">
<path d="M28.6658 24.1158H16.4607V2.88867H28.6658V24.1158Z" fill="#757575"/>
<path d="M17.2413 13.5C17.2413 9.19397 19.3246 5.35829 22.5689 2.88642C20.1964 1.07887 17.2023 2.21925e-06 13.9482 2.21925e-06C6.24464 2.21925e-06 0 6.04406 0 13.5C0 20.9559 6.24464 27 13.9482 27C17.2023 27 20.1964 25.9211 22.5689 24.1136C19.3246 21.6417 17.2413 17.806 17.2413 13.5Z" fill="#505050"/>
<path d="M45.1241 13.5C45.1241 20.9559 38.8794 27 31.1758 27C27.9218 27 24.9277 25.9211 22.5543 24.1136C25.7995 21.6417 27.8828 17.806 27.8828 13.5C27.8828 9.19397 25.7995 5.35829 22.5543 2.88642C24.9277 1.07887 27.9218 2.21925e-06 31.1758 2.21925e-06C38.8794 2.21925e-06 45.1241 6.04406 45.1241 13.5Z" fill="#5F5F5F"/>
<path d="M88.7516 22.4874H84.6461L87.212 6.71829H91.3179L88.7516 22.4874ZM81.1923 6.71829L77.2783 17.5644L76.8151 15.2288L76.8156 15.2296L75.4341 8.13812C75.4341 8.13812 75.2671 6.71829 73.4866 6.71829H67.016L66.9401 6.9853C66.9401 6.9853 68.9188 7.39699 71.2345 8.78771L74.8014 22.4878H79.079L85.6108 6.71829H81.1923ZM113.484 22.4874H117.254L113.967 6.71787H110.667C109.143 6.71787 108.772 7.89304 108.772 7.89304L102.649 22.4874H106.928L107.784 20.145H113.003L113.484 22.4874ZM108.967 16.9093L111.124 11.0081L112.337 16.9093H108.967ZM102.97 10.5104L103.556 7.12408C103.556 7.12408 101.748 6.43652 99.863 6.43652C97.8257 6.43652 92.9875 7.32697 92.9875 11.6569C92.9875 15.7308 98.6659 15.7814 98.6659 17.9212C98.6659 20.0611 93.5725 19.6777 91.8916 18.3283L91.2812 21.869C91.2812 21.869 93.1144 22.7594 95.9153 22.7594C98.717 22.7594 102.944 21.3088 102.944 17.3606C102.944 13.2606 97.214 12.8789 97.214 11.0963C97.2145 9.31329 101.213 9.54233 102.97 10.5104Z" fill="#4F4F4F"/>
<path d="M76.8135 15.2301L75.432 8.13857C75.432 8.13857 75.265 6.71875 73.4845 6.71875H67.0139L66.938 6.98576C66.938 6.98576 70.048 7.63029 73.0311 10.0452C75.8834 12.3533 76.8135 15.2301 76.8135 15.2301Z" fill="#939393"/>
</g>
</svg>

<svg width="118" height="27" viewBox="0 0 118 27" fill="none" xmlns="http://www.w3.org/2000/svg"><g opacity=".5"><path d="M28.666 24.116H16.46V2.889h12.205v21.227z" fill="#757575"/><path d="M17.241 13.5c0-4.306 2.084-8.142 5.328-10.614A14.184 14.184 0 0013.949 0C6.244 0 0 6.044 0 13.5S6.245 27 13.948 27c3.254 0 6.248-1.079 8.62-2.886-3.243-2.472-5.327-6.308-5.327-10.614z" fill="#505050"/><path d="M45.124 13.5c0 7.456-6.245 13.5-13.948 13.5a14.19 14.19 0 01-8.622-2.886c3.245-2.472 5.329-6.308 5.329-10.614 0-4.306-2.084-8.142-5.329-10.614A14.189 14.189 0 0131.176 0c7.703 0 13.948 6.044 13.948 13.5z" fill="#5F5F5F"/><path d="M88.752 22.487h-4.106l2.566-15.769h4.106l-2.566 15.77zm-7.56-15.769l-3.914 10.846-.463-2.335-1.38-7.09s-.168-1.42-1.948-1.42h-6.471l-.076.266s1.979.412 4.294 1.803l3.567 13.7h4.278l6.532-15.77h-4.419zm32.292 15.77h3.77l-3.287-15.77h-3.3c-1.524 0-1.895 1.175-1.895 1.175l-6.123 14.594h4.279l.856-2.342h5.219l.481 2.342zm-4.517-5.579l2.157-5.9 1.213 5.9h-3.37zm-5.997-6.399l.586-3.386s-1.808-.687-3.693-.687c-2.037 0-6.876.89-6.876 5.22 0 4.074 5.679 4.124 5.679 6.264 0 2.14-5.093 1.757-6.774.407l-.61 3.541s1.832.89 4.633.89c2.802 0 7.029-1.45 7.029-5.398 0-4.1-5.73-4.482-5.73-6.265 0-1.783 3.999-1.554 5.756-.586z" fill="#4F4F4F"/><path d="M76.814 15.23l-1.383-7.09s-.167-1.42-1.948-1.42h-6.47l-.076.267s3.11.644 6.093 3.06c2.852 2.307 3.782 5.184 3.782 5.184z" fill="#939393"/></g></svg>
